X: 3
T: Dancing Dog, The
C: Cary Reid
Z: birlibirdie
S: https://thesession.org/tunes/22#setting49857
R: slide
M: 12/8
L: 1/8
K: Amix
|:ABG AAA|eAA Bcd|dGd dGB|BAG A2B|
cAB cde|eAB cde|gfg fed|BGB A2e:||
|:e2c cde|dBg Bcd|edc cde|Bdg a2a|
abg fga|gfe fed|edc BAG|BAA A2A:||

